web/images/products-nav/uptimely-logo-mark-colour-filled.svg

<svg height="363" viewBox="0 0 363 363" width="363" xmlns="http://www.w3.org/2000/svg" xmlns:xlink="http://www.w3.org/1999/xlink"><linearGradient id="a" x1="12.432537%" x2="78.487142%" y1="11.609668%" y2="74.348958%"><stop offset="0" stop-color="#56e39f"/><stop offset="1" stop-color="#64f195"/></linearGradient><path d="m200.983008 361.966537c.035815-.460843.054043-.926411.054043-1.396082l.119729-193.693182 30.17193 28.969318c7.483117 7.167045 19.575835 7.167045 27.058952 0 7.483117-7.167046 7.483117-18.851136 0-26.018182l-63.097646-60.407954c-3.532031-3.613637-8.201496-5.420455-13.409746-5.420455s-9.93758 1.806818-13.409746 5.420455l-62.858186 60.407954c-7.4831173 7.227273-7.4831173 18.851136 0 26.078409 7.483117 7.167046 19.575835 7.167046 27.058952 0l30.17193-29.029545-.11973 193.693182c0 .496936.020405.989278.060457 1.476291-91.4463108-9.36781-162.783947-86.626379-162.783947-180.546746v-88.89c0-51.1470907 41.4629093-92.61 92.61-92.61h177.78c51.147091 0 92.61 41.4629093 92.61 92.61v88.89c0 93.657636-70.939078 170.746563-162.016992 180.466537z" fill="url(#a)" fill-rule="evenodd"/></svg>

<?xml version="1.0" encoding="UTF-8"?>
<svg width="363px" height="363px" viewBox="0 0 363 363" version="1.1" xmlns="http://www.w3.org/2000/svg" xmlns:xlink="http://www.w3.org/1999/xlink">
    <!-- Generator: Sketch 52.6 (67491) - http://www.bohemiancoding.com/sketch -->
    <title>mark</title>
    <desc>Created with Sketch.</desc>
    <defs>
        <linearGradient x1="12.4325368%" y1="11.6096683%" x2="78.4871419%" y2="74.3489583%" id="linearGradient-1">
            <stop stop-color="#56E39F" offset="0%"></stop>
            <stop stop-color="#64F195" offset="100%"></stop>
        </linearGradient>
    </defs>
    <g id="coloured" stroke="none" stroke-width="1" fill="none" fill-rule="evenodd">
        <g id="Icon-Copy" transform="translate(-74.000000, -82.000000)">
            <g id="mark" transform="translate(74.000000, 82.000000)">
                <path d="M200.983008,361.966537 C201.018823,361.505694 201.037051,361.040126 201.037051,360.570455 L201.15678,166.877273 L231.32871,195.846591 C238.811827,203.013636 250.904545,203.013636 258.387662,195.846591 C265.870779,188.679545 265.870779,176.995455 258.387662,169.828409 L195.290016,109.420455 C191.757985,105.806818 187.08852,104 181.88027,104 C176.67202,104 171.94269,105.806818 168.470524,109.420455 L105.612338,169.828409 C98.1292207,177.055682 98.1292207,188.679545 105.612338,195.906818 C113.095455,203.073864 125.188173,203.073864 132.67129,195.906818 L162.84322,166.877273 L162.72349,360.570455 C162.72349,361.067391 162.743895,361.559733 162.783947,362.046746 C71.3376362,352.678936 1.15019276e-14,275.420367 0,181.5 L2.84217094e-14,92.61 C2.21579973e-14,41.4629093 41.4629093,3.78172776e-14 92.61,2.84217094e-14 L270.39,2.84217094e-14 C321.537091,1.90261413e-14 363,41.4629093 363,92.61 L363,181.5 C363,275.157636 292.060922,352.246563 200.983008,361.966537 Z" id="Combined-Shape" fill="url(#linearGradient-1)"></path>
                <g id="arrow-up-c" transform="translate(128.000000, 158.000000)"></g>
            </g>
        </g>
    </g>
</svg>
